!!!COM: Bach, Johann Sebastian
!!!OPR: Joh. Seb. Bachs vierstimmige Choralges‰nge
!!!XEN: Four-part Chorales
!!!OTL: 173. Weltlich Ehr' und zeitlich Gut
!!!SCT: BWV 426
!!!SCA: Thematisch-systematisches Verzeichnis der musikalischen Werke Johann Sebastian Bach: Bach-Werke-Verzeichnis (Schmieder)
!!!YOR: Bach Gesellschaft Edition xxxix
!!!ENC: Steven Rasmussen
!!!CDT: 1685/3//-1750/7/28/
!!!OCY: Deutschland
!!!YEC: Copyright (c) 1994, 2000 Center for Computer Assisted Research in the Humanities
!!!YEM: Rights to all derivative editions reserved
!!!YEN: United States of America
**kern	**silbe	**kern	**silbe	**kern	**silbe	**kern	**silbe
*I:[SOPRANO]	*I:[SOPRANO]	*I:[ALTO]	*I:[ALTO]	*I:[TENORE]	*I:[TENORE]	*I:[BASSO]	*I:[BASSO]
*clefG2	*	*clefG2	*	*clefGv2	*	*clefF4	*
*k[]	*	*k[]	*	*k[]	*	*k[]	*
*C:	*	*C:	*	*C:	*	*C:	*
*M4/4	*	*M4/4	*	*M4/4	*	*M4/4	*
=1-	=1-	=1-	=1-	=1-	=1-	=1-	=1-
4cc	Welt-	8eL	.	4G	.	8CL	.
.	.	8fJ	.	.	.	8DJ	.
4b	-lich	4g	.	8GL	.	4E	.
.	.	.	.	8cJ	.	.	.
4a	Ehr'	8gL	.	4c	.	8FL	.
.	.	16fL	.	.	.	8GJ	.
.	.	16eJJ	.	.	.	.	.
4a	und	4f	.	4c	.	8FL	.
.	.	.	.	.	.	8EJ	.
=2	=2	=2	=2	=2	=2	=2	=2
4a	zeit-	8fL	.	8dL	zeit-	4D	.
.	.	8aJ	.	8f	.	.	.
4b	.	4g	.	8e	.	8GL	.
.	.	.	.	8dJ	.	8FJ	.
8ccL	-lich	4.g	.	4c	.	4E	.
8bJ	.	.	.	.	.	.	.
4a	.	.	.	4c	-lich	4F	.
.	.	8f	.	.	.	.	.
=3	=3	=3	=3	=3	=3	=3	=3
2g;	Gut,	(4f	.	2c;	.	2C;	.
.	.	4e;)	.	.	.	.	.
4r	.	4r	.	4r	.	4r	.
4b	Wol-	4g	.	4d	.	4G	.
=4	=4	=4	=4	=4	=4	=4	=4
4cc	-lust	4g	.	4e	.	8CL	.
.	.	.	.	.	.	8EJ	.
4b	und	4g	.	4d	.	8GL	.
.	.	.	.	.	.	8FJ	.
4cc	al-	4g	.	4c	.	8EL	.
.	.	.	.	.	.	8CJ	.
4a	-ler	4f	.	4c	.	8FL	.
.	.	.	.	.	.	8EJ	.
=5	=5	=5	=5	=5	=5	=5	=5
4b	‹-	4f	.	4d	.	8DL	.
.	.	.	.	.	.	8BB	.
4g	.	4e	.	4B	.	8E	.
.	.	.	.	.	.	8DJ	.
2a	-ber-	2e	.	8AL	.	8CL	.
.	.	.	.	8B	.	8BB	.
.	.	.	.	8c	.	8AA	.
.	.	.	.	8AJ	.	8CJ	.
=6	=6	=6	=6	=6	=6	=6	=6
2b;	-mut	2e;	.	2G#;	.	2E;	.
4r	.	4r	.	4r	.	4r	.
4b	ist	4e	.	4Gn	.	4E	.
=7	=7	=7	=7	=7	=7	=7	=7
4b	e-	8f#L	.	8BL	.	4D#	.
.	.	8aJ	.	8f#J	.	.	.
4b	-ben	8aL	.	8f#L	.	4E	.
.	.	8gJ	.	8eJ	.	.	.
4a	wie	4f#	.	8eL	.	4F#	.
.	.	.	.	8dJ	.	.	.
4b	ein	4e	.	8cL	.	4G#	.
.	.	.	.	8BJ	.	.	.
=8	=8	=8	=8	=8	=8	=8	=8
2cc;	Gras;	2e;	.	2A;	.	2A;	.
4g	al-	8dL	.	4d	.	4B	.
.	.	8fJ	.	.	.	.	.
4g	-le	8fL	.	8dL	.	4c	.
.	.	8eJ	.	16cL	.	.	.
.	.	.	.	16BJJ	.	.	.
=9	=9	=9	=9	=9	=9	=9	=9
4a	Pracht	8eL	.	4c	.	4F#	.
.	.	8dJ	.	.	.	.	.
4b	und	4d	.	8BL	.	8GL	.
.	.	.	.	8AJ	.	8F#J	.
4cc	stol-	(8c	.	8GL	.	8EL	.
.	.	4g)	.	8eJ	.	8CJ	.
4a	-zer	.	.	4d	.	4D	.
.	.	8f#	.	.	.	.	.
=10	=10	=10	=10	=10	=10	=10	=10
2b;	Ruhm	2g;	.	2d;	.	2GG;	.
4b	ver-	4.g	.	4d	.	4GG	.
4cc	-f√§llt	.	.	4c	.	4AA	.
.	.	8f#	.	.	.	.	.
=11	=11	=11	=11	=11	=11	=11	=11
4dd	wie	8gL	.	4B	.	4BB	.
.	.	8aJ	.	.	.	.	.
4dd	ein'	4b	.	4e	.	4GG#	.
4cc	Wie-	8aL	.	4e	.	8AAL	.
.	.	8gJ	.	.	.	8BBJ	.
4a	-sen-	4f#	.	4d	.	8CL	.
.	.	.	.	.	.	8DJ	.
=12	=12	=12	=12	=12	=12	=12	=12
2b;	-blum';	2g;	.	2d;	.	2GG;	.
4dd	o	4a	.	8f#L	.	8dL	.
.	.	.	.	8eJ	.	8cJ	.
4dd	Mensch,	8gL	.	8dL	.	8BL	.
.	.	8aJ	.	8cJ	.	8AJ	.
=13	=13	=13	=13	=13	=13	=13	=13
4dd	be-	8bL	.	4B	.	8GL	.
.	.	8aJ	.	.	.	8FJ	.
4dd	-denk'	8gL	.	4B	.	8EL	.
.	.	8fJ	.	.	.	8DJ	.
4ee	e-	4e	.	8cL	.	4C	.
.	.	.	.	8BJ	.	.	.
8ddL	-ben	4f#	.	4A	.	4D	.
8ccJ	.	.	.	.	.	.	.
=14	=14	=14	=14	=14	=14	=14	=14
2b;	das	2g;	.	2e;	.	2E;	.
4b	und	8gL	.	4d	.	4GG	.
.	.	8fJ	.	.	.	.	.
4g	ver-	4e	ver-	4c	ver-	8CL	ver-
.	.	.	.	.	.	8BBJ	.
=15	=15	=15	=15	=15	=15	=15	=15
4a	-sor-	8eL	-sor-	4c	-sor-	4AA	-sor-
.	.	8f#J	.	.	.	.	.
8bL	.	4g	-ge	4d	.	4GG	.
8ccJ	.	.	.	.	.	.	.
8ddL	.	4.a	dich	4d	-ge	4FF#	.
8ccJ	.	.	.	.	.	.	.
4b	-ge	.	.	[4d	dich	4GG	-ge
.	.	[8g	.	.	.	.	.
=16	=16	=16	=16	=16	=16	=16	=16
4a	dich	8gL]	.	4d]	.	4D	dich
.	.	16fL	.	.	.	.	.
.	.	16eJJ	.	.	.	.	.
4b	doch	8fL	doch	8dL	.	4GG	doch
.	.	16eL	.	8GJ	.	.	.
.	.	16dJJ	.	.	.	.	.
2cc;	bass.	2e;	.	2G;	.	2C;	.
==|!	==|!	==|!	==|!	==|!	==|!	==|!	==|!
!!!RNB1: *) "‹bermut" spelled "Uebermut" in BG.
*-	*-	*-	*-	*-	*-	*-	*-
!!!RWG: Key is interpreted using the Humdrum key tool.
!!!END: 1994/08/08
!!!EMD: Converted from MuseData to Humdrum Dec 19, 2000, by Andreas Kornstaedt using muse2kern.
!!!EED: Craig Stuart Sapp
!!!EEV: 2024/03/31
!!!ONB: Some non-unicode characters
